X: 1
T: \vCetvorno Horo
M: 7/16
L: 1/16
Z: 1998 by John Chambers <jc@trillian.mit.edu> http://trillian.mit.edu/~jc/music/
N: From a 1979 Mandala transcription
K: Am
P: A:
|::: "Am"deA ed eA | "Dm"cdA dc dA | "Am"BcA ~c2 "Em"BG |1,3 ABG "Am"AB cd :|2,4 ABG "Am"A2 A2 :|
P: B:
|::: "Am"BcA ~c2 "Em"BG | "Am"ABd ~c2 "Em"BG | "Am"BcA ~c2 "Em"BG |1,3 ABG "Am"~A2 AE :|2,4 ABG "Am"A2 A2 :| [K:G]
P: C:
|::: "G"d3 de dc | ~B2G AG dc | "D7"~B2A AG AB |1,3 G2"G"D d2 :|2,4 G2"G"D G2 z2 :|
P: D:
|::: "Em"G2A "D"GF EF | "G"G2D dc ~B2 | "D7"GA2 GF EF |1,3 G2"G"z dc ~B2 :|2,4 G2"G"D G2 z2 :| [K:Am]
P: E:
|: "Am"AGA Bc ~cB | BGA BG ~A2 | AGA Bc ~cB | BGA BG ~A2 :|
P: F:
K: A_B^c
[| "A"ABG ~A2 AE | ABG ~A2 AE | ABG ~A2 AE | ABG ~A2 A2 ||
|| "A"cdB ~c2 cB | ABG ~A2 AE | cdB ~c2 cB | ABG ~A2 A2 |]
